Sources/FrostedUI/Resources/Icons.xcassets/heading20.imageset/heading-20.svg

<svg width="20" height="20" viewBox="0 0 20 20" fill="none" xmlns="http://www.w3.org/2000/svg" data-fui-icon="true">
  <path
    d="M6.37134 1.99352C6.78555 1.99352 7.12134 2.32931 7.12134 2.74352C7.12134 3.15774 6.78555 3.49352 6.37134 3.49352H5.30786V9.25036H14.6926V3.49352H13.6282C13.214 3.49347 12.8782 3.1577 12.8782 2.74352C12.8782 2.32934 13.214 1.99358 13.6282 1.99352H17.2561C17.6703 1.99352 18.0061 2.32931 18.0061 2.74352C18.0061 3.15774 17.6703 3.49352 17.2561 3.49352H16.1926V16.5062H17.2561C17.6702 16.5062 18.0059 16.8422 18.0061 17.2562C18.0061 17.6704 17.6703 18.0062 17.2561 18.0062H13.6282C13.214 18.0062 12.8782 17.6704 12.8782 17.2562C12.8784 16.8422 13.2141 16.5063 13.6282 16.5062H14.6926V10.7504H5.30786V16.5062H6.37134C6.78543 16.5062 7.12113 16.8422 7.12134 17.2562C7.12134 17.6704 6.78555 18.0062 6.37134 18.0062H2.74341C2.32919 18.0062 1.99341 17.6704 1.99341 17.2562C1.99361 16.8422 2.32932 16.5062 2.74341 16.5062H3.80786V3.49352H2.74341C2.32919 3.49352 1.99341 3.15774 1.99341 2.74352C1.99341 2.32931 2.32919 1.99352 2.74341 1.99352H6.37134Z"
    fill="currentColor"
  />
</svg>

<svg xmlns="http://www.w3.org/2000/svg" width="20" height="20" fill="none" data-fui-icon="true" viewBox="0 0 20 20"><path fill="currentColor" d="M6.371 1.994a.75.75 0 0 1 0 1.5H5.308V9.25h9.385V3.494h-1.065a.75.75 0 0 1 0-1.5h3.628a.75.75 0 0 1 0 1.5h-1.063v13.012h1.063a.75.75 0 0 1 0 1.5h-3.628a.75.75 0 0 1 0-1.5h1.065V10.75H5.308v5.756H6.37a.75.75 0 0 1 0 1.5H2.743a.75.75 0 0 1 0-1.5h1.065V3.494H2.743a.75.75 0 1 1 0-1.5z"/></svg>
